raiden-dapp/src/assets/received_transfer.svg

<svg width="35" height="36" viewBox="0 0 35 36" fill="none" xmlns="http://www.w3.org/2000/svg">
<path fill-rule="evenodd" clip-rule="evenodd" d="M1.08993 6.44886C0 8.58798 0 11.3882 0 16.9888V19.9888C0 25.5893 0 28.3896 1.08993 30.5287C2.04867 32.4103 3.57847 33.9401 5.46009 34.8988C7.59921 35.9888 10.3995 35.9888 16 35.9888H19C24.6005 35.9888 27.4008 35.9888 29.5399 34.8988C31.4215 33.9401 32.9513 32.4103 33.9101 30.5287C35 28.3896 35 25.5893 35 19.9888V16.9888C35 11.3882 35 8.58798 33.9101 6.44886C32.9513 4.56724 31.4215 3.03744 29.5399 2.0787C27.4008 0.98877 24.6005 0.98877 19 0.98877H16C10.3995 0.98877 7.59921 0.98877 5.46009 2.0787C3.57847 3.03744 2.04867 4.56724 1.08993 6.44886ZM19.0525 22.77C19.0525 23.2874 18.6331 23.7067 18.1158 23.7067H13.0674C12.9928 23.7071 12.9276 23.7069 12.8749 23.7068C12.8529 23.7068 12.833 23.7067 12.8156 23.7067C12.4387 23.7062 12.1469 23.4998 11.9948 23.2192C11.9604 23.1563 11.933 23.089 11.9136 23.0183C11.8853 22.9169 11.8735 22.8106 11.8803 22.7043V17.4713C11.8803 16.954 12.2997 16.5346 12.817 16.5346C13.3344 16.5346 13.7537 16.954 13.7537 17.4713V20.5087L20.1028 14.1596C20.4686 13.7937 21.0617 13.7937 21.4275 14.1596C21.7933 14.5254 21.7933 15.1184 21.4275 15.4842L15.0784 21.8333H18.1158C18.6331 21.8333 19.0525 22.2527 19.0525 22.77Z" fill="white" fill-opacity="0.2"/>
</svg>

<?xml version="1.0" encoding="utf-8"?>
<!-- Generator: Adobe Illustrator 23.0.3, SVG Export Plug-In . SVG Version: 6.00 Build 0)  -->
<svg version="1.1" id="Layer_1" xmlns="http://www.w3.org/2000/svg" xmlns:xlink="http://www.w3.org/1999/xlink" x="0px" y="0px"
	 viewBox="0 0 35 36" style="enable-background:new 0 0 35 36;" xml:space="preserve">
<style type="text/css">
	.st0{fill-rule:evenodd;clip-rule:evenodd;fill:#3F3F3F;fill-opacity:0.2;}
</style>
<path class="st0" d="M1.1,6.4C0,8.6,0,11.4,0,17v3c0,5.6,0,8.4,1.1,10.5c1,1.9,2.5,3.4,4.4,4.4C7.6,36,10.4,36,16,36h3
	c5.6,0,8.4,0,10.5-1.1c1.9-1,3.4-2.5,4.4-4.4C35,28.4,35,25.6,35,20v-3c0-5.6,0-8.4-1.1-10.5c-1-1.9-2.5-3.4-4.4-4.4
	C27.4,1,24.6,1,19,1h-3C10.4,1,7.6,1,5.5,2.1C3.6,3,2,4.6,1.1,6.4z M19.1,22.8c0,0.5-0.4,0.9-0.9,0.9h-5c-0.1,0-0.1,0-0.2,0
	c0,0,0,0-0.1,0c-0.4,0-0.7-0.2-0.8-0.5c0-0.1-0.1-0.1-0.1-0.2c0-0.1,0-0.2,0-0.3v-5.2c0-0.5,0.4-0.9,0.9-0.9c0.5,0,0.9,0.4,0.9,0.9
	v3l6.3-6.3c0.4-0.4,1-0.4,1.3,0c0.4,0.4,0.4,1,0,1.3l-6.3,6.3h3C18.6,21.8,19.1,22.3,19.1,22.8z"/>
</svg>
